dist/svgs/core-ui-icons/free/cil-envelope-closed.svg

<svg xmlns="http://www.w3.org/2000/svg" viewBox="0 0 512 512"><path d="M16 112v384h480V112zm220.8 229.6a32.167 32.167 0 0038.4 0l23.467-17.6L464 448v16H48v-16l165.333-124zM256 316L48 160v-16h416v16zM48 200l138.667 104L48 408zm416 208L325.333 304 464 200z"/></svg>

<svg xmlns="http://www.w3.org/2000/svg" viewBox="0 0 512 512">
  <path fill="var(--ci-primary-color, currentColor)" d="M16,112V496H496V112ZM236.8,341.6a32.167,32.167,0,0,0,38.4,0L298.667,324,464,448v16H48V448L213.333,324ZM256,316,48,160V144H464v16ZM48,200,186.667,304,48,408ZM464,408,325.333,304,464,200Z" class="ci-primary"/>
</svg>
